frontend/public/svg/interface/shuffle.svg

<svg width="153" height="96" viewBox="0 0 153 96" fill="none" xmlns="http://www.w3.org/2000/svg">
<g clip-path="url(#clip0)">
<path d="M73.6726 53.6457C70.5524 56.9369 67.6276 59.9376 64.7945 63.0258C58.6543 69.7132 51.2865 74.7052 43.1703 78.6457C38.5418 80.8933 33.5761 81.8137 28.4573 82.2425C20.2545 82.9294 12.1151 82.0849 3.95693 81.5789C3.40408 81.575 2.85417 81.4972 2.32175 81.348C1.94496 81.2507 1.60495 81.0451 1.34411 80.7551C1.08327 80.4659 0.913127 80.1059 0.85474 79.7199C0.796354 79.3346 0.852377 78.9396 1.01581 78.5861C1.17924 78.2319 1.4429 77.9335 1.77395 77.7286C2.5986 77.1817 3.5532 76.8633 4.54042 76.8062C7.84752 76.6648 11.163 76.718 14.4747 76.6518C18.2261 76.5772 21.986 76.5869 25.7291 76.3275C38.7558 75.4343 48.7491 68.5391 57.6886 59.8092C61.0773 56.5011 64.0545 52.7707 67.2039 49.2193C67.6327 48.7355 67.9717 48.1724 68.4264 47.5438C60.3115 37.2232 51.3194 28.0935 39.2111 22.6098C34.2055 20.3396 28.8222 19.5651 23.3858 19.3912C18.4203 19.233 13.4444 19.4359 8.47557 19.3548C6.71876 19.2957 4.97198 19.0637 3.26037 18.6621C2.98349 18.6184 2.71842 18.5185 2.4814 18.3684C2.24437 18.2184 2.04027 18.0215 1.8818 17.7897C1.72334 17.5578 1.61385 17.296 1.55982 17.0202C1.50578 16.7444 1.50834 16.4603 1.56755 16.1856C1.73572 15.0297 2.56954 14.5159 3.66652 14.4394C13.5834 13.7512 23.4944 12.6946 33.4352 14.1741C42.6011 15.5363 50.3732 19.984 57.3303 25.6759C62.6024 29.9888 67.1826 35.1463 72.066 39.9281C72.5356 40.3886 72.9754 40.8797 73.5258 41.4589C75.5277 39.3242 77.4998 37.2738 79.4118 35.1709C87.8287 25.9264 98.7209 21.2988 110.7 19.2504C118.952 17.8389 127.373 17.4154 135.719 16.5501C136.231 16.497 136.743 16.4392 137.894 16.314C136.051 14.6392 134.61 13.327 133.166 12.0193C131.12 10.1661 128.999 8.38691 127.045 6.44096C125.506 4.91015 125.355 3.40527 126.256 1.96527C127.145 0.546675 129.062 0.0192878 130.981 0.858637C132.087 1.36059 133.121 2.0104 134.054 2.79033C138.408 6.36309 142.746 9.95916 147.018 13.6292C148.149 14.6757 149.18 15.8268 150.096 17.0671C150.913 17.987 151.384 19.1633 151.431 20.3941C151.478 21.6249 151.096 22.8337 150.351 23.8131C145.981 30.3469 141.074 36.4345 135.061 41.5672C134.807 41.7801 134.537 41.9731 134.253 42.1445C132.438 43.2621 130.779 43.2919 129.667 42.2372C128.473 41.1047 128.445 39.2612 129.789 37.4223C131.546 35.0178 133.457 32.7249 135.236 30.3359C136.266 28.9536 137.168 27.4766 138.341 25.7304C136.005 25.7304 134.141 25.6202 132.295 25.7486C122.818 26.4083 113.37 27.1218 104.136 29.7145C93.672 32.6529 85.6638 38.852 79.0166 47.3804C79.2876 47.9454 79.5981 48.4901 79.9473 49.0104C88.5428 60.1795 99.9893 66.4304 113.883 68.185C121.222 69.1113 128.614 69.6185 135.985 70.2924C136.835 70.3703 137.7 70.3028 139.306 70.3028C136.497 66.529 134.077 63.2807 131.66 60.0317C131.015 59.2789 130.433 58.4737 129.921 57.6245C129.228 56.2624 129.141 54.825 130.374 53.6743C130.861 53.2068 131.493 52.9201 132.165 52.8617C132.836 52.8033 133.508 52.9767 134.068 53.3532C135.339 54.0208 136.496 54.886 137.496 55.9166C141.793 60.799 146.157 65.6403 150.136 70.775C153.119 74.6248 152.776 77.1467 149.318 80.7188C147.254 82.8522 144.867 84.6756 142.591 86.6047C139.979 88.8185 137.387 91.0622 134.674 93.1482C133.46 94.0888 132.096 94.8166 130.64 95.3017C129.956 95.5618 129.201 95.5657 128.514 95.3134C127.827 95.0611 127.253 94.5688 126.899 93.9266C126.495 93.3201 126.314 92.5917 126.388 91.8659C126.46 91.1407 126.781 90.4628 127.298 89.9484C128.431 88.7413 129.63 87.5971 130.888 86.5203C133.302 84.3201 135.735 82.1413 138.54 79.6109C133.961 79.2808 130.017 79.0628 126.085 78.7028C118.274 77.9822 110.515 77.0073 102.957 74.7123C92.2535 71.4626 83.5268 65.3874 76.4151 56.8708C75.5704 55.8596 74.7075 54.8619 73.6726 53.6457Z" fill="black"/>
</g>
<defs>
<clipPath id="clip0">
<rect width="152" height="96" fill="white" transform="translate(0.777344)"/>
</clipPath>
</defs>
</svg>

<svg xmlns="http://www.w3.org/2000/svg" width="153" height="96" fill="none" viewBox="0 0 153 96"><g clip-path="url(#a)"><path fill="#000" d="M73.673 53.646c-3.12 3.29-6.045 6.292-8.879 9.38-6.14 6.687-13.507 11.68-21.624 15.62-4.628 2.247-9.594 3.168-14.713 3.597-8.202.686-16.342-.158-24.5-.664a6.2 6.2 0 0 1-1.635-.231A1.98 1.98 0 0 1 .855 79.72a1.99 1.99 0 0 1 .919-1.991 5.6 5.6 0 0 1 2.766-.923c3.308-.141 6.623-.088 9.935-.154 3.751-.075 7.511-.065 11.254-.325 13.027-.893 23.02-7.788 31.96-16.518 3.388-3.308 6.366-7.038 9.515-10.59.429-.483.768-1.047 1.222-1.675-8.114-10.32-17.107-19.45-29.215-24.934-5.005-2.27-10.389-3.045-15.825-3.219-4.966-.158-9.942.045-14.91-.036a27 27 0 0 1-5.216-.693 2.06 2.06 0 0 1-1.378-.872 2.07 2.07 0 0 1-.314-1.604c.168-1.156 1.002-1.67 2.099-1.747 9.916-.688 19.827-1.744 29.768-.265 9.166 1.362 16.938 5.81 23.895 11.502 5.272 4.313 9.853 9.47 14.736 14.252.47.46.91.952 1.46 1.53 2.002-2.134 3.974-4.184 5.886-6.287 8.417-9.245 19.309-13.872 31.288-15.92 8.252-1.412 16.673-1.836 25.019-2.7.512-.054 1.024-.112 2.175-.237-1.843-1.675-3.284-2.987-4.728-4.295-2.046-1.853-4.167-3.632-6.121-5.578-1.539-1.53-1.69-3.036-.789-4.476.889-1.418 2.806-1.946 4.725-1.106a13.5 13.5 0 0 1 3.073 1.931c4.354 3.573 8.692 7.17 12.964 10.84a24.6 24.6 0 0 1 3.078 3.437 5.314 5.314 0 0 1 .255 6.746c-4.37 6.534-9.277 12.622-15.29 17.754a6.4 6.4 0 0 1-.808.578c-1.815 1.117-3.474 1.147-4.586.092-1.194-1.132-1.222-2.976.122-4.815 1.757-2.404 3.668-4.697 5.447-7.086 1.03-1.382 1.932-2.86 3.105-4.606-2.336 0-4.2-.11-6.046.019-9.477.66-18.925 1.373-28.159 3.966-10.464 2.938-18.472 9.137-25.12 17.665q.408.849.931 1.63c8.596 11.17 20.042 17.42 33.936 19.175 7.339.926 14.731 1.433 22.102 2.107.85.078 1.715.01 3.321.01-2.809-3.773-5.229-7.021-7.646-10.27a18 18 0 0 1-1.739-2.407c-.693-1.363-.78-2.8.453-3.95a2.956 2.956 0 0 1 3.694-.322 13.6 13.6 0 0 1 3.428 2.564c4.297 4.882 8.661 9.723 12.64 14.858 2.983 3.85 2.64 6.372-.818 9.944-2.064 2.133-4.451 3.957-6.727 5.886-2.612 2.213-5.204 4.457-7.917 6.543a13.6 13.6 0 0 1-4.034 2.154 3.036 3.036 0 0 1-3.741-1.375 3.14 3.14 0 0 1-.511-2.061 3.14 3.14 0 0 1 .91-1.918 46 46 0 0 1 3.59-3.428c2.414-2.2 4.847-4.379 7.652-6.91-4.579-.33-8.523-.547-12.455-.907-7.811-.72-15.57-1.696-23.128-3.99-10.703-3.25-19.43-9.326-26.542-17.842-.845-1.011-1.708-2.01-2.742-3.225"/></g><defs><clipPath id="a"><path fill="#fff" d="M.777 0h152v96h-152z"/></clipPath></defs></svg>
